!!!COM: Bach, Johann Sebastian
!!!OTL@@DE: 210. Christe, du Beistand deiner Kreuzgemeine
!!!OTL@EN: Christ, Thou support of Thy followers
!!!SCA: BWV 275
**kern	**kern	**kern	**kern
*staff2	*staff2	*staff1	*staff1
*Iorgan	*Iorgan	*Iorgan	*Iorgan
!bass	!tenor	!alto	!sprno
*clefF4	*clefF4	*clefG2	*clefG2
*k[]	*k[]	*k[]	*k[]
*met(C)	*met(C)	*met(C)	*met(C)
*M4/4	*M4/4	*M4/4	*M4/4
*MM60	*MM60	*MM60	*MM60
8D\L	8F/L	4A\	4d/
8E\J	8G/J	.	.
=1	=1	=1	=1
8F\L	4A/	4A\	4d/
8E\	.	.	.
8D\	4A/	4e\	4e/
8C#\J	.	.	.
8D\L	2A/	4e\	2f/
8E\	.	.	.
8F\	.	4d\	.
8D\J	.	.	.
=2	=2	=2	=2
2AA;\	2A;/	2c#;\	2e;/
8C\L	4A/	4e\	4a/
8BB\	.	.	.
8AA\	4e/	4e\	4b/
8GG#\J	.	.	.
=3	=3	=3	=3
8AA\L	4e/	2a\	4cc/
8C\J	.	.	.
8F\L	8d/L	.	8dd/L
8E\J	8e/J	.	8cc/J
8D\L	4f/	4a\	2b/
8BB\J	.	.	.
4E\	8e/L	4g#\	.
.	8d/J	.	.
=4	=4	=4	=4
2AA;\	2c;/	2e;\	2a;/
4r	4r	4r	4r
4AA\	4e/	(4a\	4cc/
=5	=5	=5	=5
8D\L	8f/L	8a\L	4b/)
8E\J	16e/L	8g\J	.
.	16d/JJ	.	.
[4F\	4c/	8f\L	4a/
.	.	8e\J	.
4F\]	4B/	4d\	4g/
4E\	4c/	[4g\	4g/
=6	=6	=6	=6
4F\	4c/	8g\L]	4a/
.	.	[8f\J	.
4C\	4c/	8f\L]	4g/
.	.	[8e\J	.
4D\	4A/	8e\L]	4f/
.	.	8d\J	.
8AA\L	4A/	8c\L	4f/
8BB-\J	.	8d\J	.
=7	=7	=7	=7
!!linebreak: 2
2C\	8G/L	2c\	2e/
.	8A/J	.	.
.	4B-/	.	.
4FF;\	4A;/	4c;\	4f;/
4AA\	4A/	8c#\L	4e/
.	.	8d\J	.
=8	=8	=8	=8
4C#\	4A/	4e\	[4e/
8D\L	4A/	8e\L]	4f/
8Cn\J	.	[8d\J	.
8BB\L	2G/	8d\L]	2g/
8AA\	.	8c\	.
8BB\	.	8d\	.
8GG\J	.	8B\J	.
=9	=9	=9	=9
2C;\	2G;/	2c;\	2e;/
4C\	4e/	4a\	4a/
4D\	4f/	[4a\	4b/
=10	=10	=10	=10
4E\	4e/	8a\L]	4cc/
.	.	8g#\J	.
8F\L	8d/L	4a\	8dd/L
8E\J	8e/J	.	8cc/J
4D\	4f/	4a\	2b/
4E\	8e/L	4g#\	.
.	8d/J	.	.
=11	=11	=11	=11
2AA;\	2c;/	2e;\	2a;/
4r	4r	4r	4r
4AA\	4A/	4c\	4f#/
=12	=12	=12	=12
4BB-\	4.G/	4d\	4g/
4BBn\	.	4d\	4g/
.	8F/	.	.
4C\	8E-/L	4e-\	4g/
.	8B-/J	.	.
4D\	8A/L	4d\	4f#/
.	8c/J	.	.
=13	=13	=13	=13
2GG;\	2B-;/	2d;\	2g;/
4r	4r	4r	4r
4AA\	4A/	4c#\	4e/
=14	=14	=14	=14
8D\L	4A/	4d\	4f/
8C\	.	.	.
8BB-\	8G/L	[4d\	4g/
8GG\J	8B-/J	.	.
2AA\	8A/	4d\]	2e/
.	8E/	.	.
.	8A/	4c#\	.
.	8G/	.	.
=15	=15	=15	=15
2.D;\	2.F#;/	2.A;\	2.d;/
==	==	==	==
*-	*-	*-	*-
!!!ENC: Craig Stuart Sapp
!!!END: 2004/12/06/
!!chor2scor: -l 2 -s 0.6 -o %b.pmx
